!! George Gerswhin, "Isn't It A Pith" from
!! "Bumper Book of George Gerswhin,"
!! London: Chappell Music Ltd., 1987; pp.156-160
**kern
*M4/4
*MM[Moderato]
!! Verse
=1
4cc
8.b
16cc
8b
4.a
=2
8.cc
16cc
8.b-
16cc
8b-
4.a-
=3
4g
4an
4cc
4ee
=4
1f
=5
4e
4g
8.a
16a
4cc
!! page 157
=6
1d
=7
8.e
16f
8.g
16e
8a
4a
8a
=8
8.e
16f
8.g
16e
2a
=9
4cc
8.b
16cc
8b
4.a
=10
8.cc
16cc
8.b-
16cc
8b-
4.a-
=11
4g
4an
4cc
4ee
=12
1f#
=13
4g
8.a
16g
8a
4.b
=14
8.g
16g
8.a
16g
(8a
4.b)
=15
2dd
2dd
=16
2.dd
4r
!! Refrain
!! not fast, with expression
!! page 158
=17
8.e
16f
8.g
16a
2b
=18
8r
8a
12cc
12b
[12a
2a]
=19
8r
8g
12b
12a
[12g
2g]
=20
8r
8f
12a
12g
[12f
2f]
=21
8.e
16f
8.g
16b
8dd
4.dd
=22
8r
8cc
12ee
12dd
[12cc
4cc]
4cc
=23
2.g
4r
=24
1r
=25
8.e
16f
8.g
16a
2b
=26
8r
8a
12cc
12b
[12a
2a]
=27
8r
8g
12b
12a
[12g
2g]
=28
8r
8f
12a
12g
[12f
2f]
!! page 159
=29
8.e
16f
8.g
16b
8dd
4.dd
=30
8r
8cc
12ee
12dd
[12cc
4cc]
4cc
=31
2.cc
4r
=32
8.r
16cc
8.dd
16cc
4dd
4cc
=33
4b
4e
4f#
4g
=34
4b
2.b
=35
4b
8.a
16b
8a
4.g
=36
8.b
16b
8.a
16b
8a
4.g
=37
4r
4d
4e
4g
=38
4dd
2.dd
=39
4ee
8.dd
16ee
(8dd
4.cc)
=40
8.b
16b
8.a
16b
8a
4.g
!! page 160
=41
8.e
16f
8.g
16a
2b
=42
8r
8a
12cc
12b
[12a
2a]
=43
8r
8g
12b
12a
[12g
2g]
=44
8r
8f
12a
12g
[12f
2f]
=45
8.e
16f
8.g
16b
8dd
4dd
8cc
=46
8.ee
16ee
8.dd
16dd
4cc
4b
!! First ending.
=47
1cc
=48
1r
!! Refrain
!! not fast, with expression
!! page 158
=17
8.e
16f
8.g
16a
2b
=18
8r
8a
12cc
12b
[12a
2a]
=19
8r
8g
12b
12a
[12g
2g]
=20
8r
8f
12a
12g
[12f
2f]
=21
8.e
16f
8.g
16b
8dd
4.dd
=22
8r
8cc
12ee
12dd
[12cc
4cc]
4cc
=23
2.g
4r
=24
1r
=25
8.e
16f
8.g
16a
2b
=26
8r
8a
12cc
12b
[12a
2a]
=27
8r
8g
12b
12a
[12g
2g]
=28
8r
8f
12a
12g
[12f
2f]
!! page 159
=29
8.e
16f
8.g
16b
8dd
4.dd
=30
8r
8cc
12ee
12dd
[12cc
4cc]
4cc
=31
2.cc
4r
=32
8.r
16cc
8.dd
16cc
4dd
4cc
=33
4b
4e
4f#
4g
=34
4b
2.b
=35
4b
8.a
16b
8a
4.g
=36
8.b
16b
8.a
16b
8a
4.g
=37
4r
4d
4e
4g
=38
4dd
2.dd
=39
4ee
8.dd
16ee
(8dd
4.cc)
=40
8.b
16b
8.a
16b
8a
4.g
!! page 160
=41
8.e
16f
8.g
16a
2b
=42
8r
8a
12cc
12b
[12a
2a]
=43
8r
8g
12b
12a
[12g
2g]
=44
8r
8f
12a
12g
[12f
2f]
=45
8.e
16f
8.g
16b
8dd
4dd
8cc
=46
8.ee
16ee
8.dd
16dd
4cc
4b
!! Second ending.
=47
1cc
=48
4cc
4r
2r
====
*-
